Profile Folder/chrome/windows/gsettings/imgs/themes/classic-md3.svg

<svg width="218" height="160" version="1.1" viewBox="0 0 57.679166 42.333332" xmlns="http://www.w3.org/2000/svg">
    <rect width="57.679165" height="42.333332" fill="#d3e3fd" style="paint-order:stroke fill markers"/>
    <path d="m3.4395833 2.6458333c-1.0080071 0.7671125-1.0898069 3.3771199-2.1166667 5.2916666h-0.79374994v33.866666h56.620832v-33.866666h-28.794106c-1.026867-1.9145467-1.10866-4.5245541-2.116668-5.2916666h-19.285128z" color="#000000" color-rendering="auto" dominant-baseline="auto" fill="#fff" image-rendering="auto" shape-rendering="auto" solid-color="#000000" stop-color="#000000" style="font-feature-settings:normal;font-variant-alternates:normal;font-variant-caps:normal;font-variant-east-asian:normal;font-variant-ligatures:normal;font-variant-numeric:normal;font-variant-position:normal;font-variation-settings:normal;inline-size:0;isolation:auto;mix-blend-mode:normal;paint-order:stroke fill markers;shape-margin:0;shape-padding:0;text-decoration-color:#000000;text-decoration-line:none;text-decoration-style:solid;text-indent:0;text-orientation:mixed;text-transform:none;white-space:normal"/>
    <path d="m0.52916664 7.9374995h56.620826v5.8208335h-56.620826z" fill="#202020" style="paint-order:stroke fill markers"/>
    <path d="m3.4395833 2.6458333c-1.0080071 0.7671125-1.089807 3.4035782-2.1166667 5.3181249h27.032977c-1.026861-1.9145467-1.10866-4.5510124-2.116668-5.3181249h-19.285129z" fill="#fff"/>
    <rect x=".52916664" y="7.9374995" width="56.620831" height="5.8208332" fill="#fff" style="paint-order:stroke fill markers"/>
    <rect x=".52916664" y="13.49375" width="56.620831" height=".26458332" fill="#e1e1e1" style="paint-order:stroke fill markers"/>
    <path transform="scale(.26458333)" d="m85 0 47.5 160h85.5v-160z" fill="#1f2020" style="paint-order:stroke fill markers"/>
    <path transform="scale(.26458333)" d="m87.96875 10 43.9375 148h84.09375v-128h-108.82812c-3.88108-7.236082-4.19021-17.100677-8.000005-20z" color="#000000" color-rendering="auto" dominant-baseline="auto" fill="#202020" image-rendering="auto" shape-rendering="auto" solid-color="#000000" stop-color="#000000" style="font-feature-settings:normal;font-variant-alternates:normal;font-variant-caps:normal;font-variant-east-asian:normal;font-variant-ligatures:normal;font-variant-numeric:normal;font-variant-position:normal;font-variation-settings:normal;inline-size:0;isolation:auto;mix-blend-mode:normal;paint-order:stroke fill markers;shape-margin:0;shape-padding:0;text-decoration-color:#000000;text-decoration-line:none;text-decoration-style:solid;text-indent:0;text-orientation:mixed;text-transform:none;white-space:normal"/>
    <path transform="scale(.26458333)" d="m87.96875 10 5.9375 20h13.26563c-3.88105-7.236082-4.19021-17.100677-8.000005-20z" fill="#3c3c3c"/>
    <path transform="scale(.26458333)" d="m93.90625 30 6.53125 22h115.5625v-22z" fill="#3c3c3c" style="paint-order:stroke fill markers"/>
    <path transform="scale(.26458333)" d="m100.14062 51 0.29688 1h115.5625v-1z" fill="#444746" style="paint-order:stroke fill markers"/>
</svg>

<?xml version="1.0" encoding="UTF-8" standalone="no"?>
<svg
   xmlns:dc="http://purl.org/dc/elements/1.1/"
   xmlns:cc="http://creativecommons.org/ns#"
   xmlns:rdf="http://www.w3.org/1999/02/22-rdf-syntax-ns#"
   xmlns:svg="http://www.w3.org/2000/svg"
   xmlns="http://www.w3.org/2000/svg"
   xmlns:sodipodi="http://sodipodi.sourceforge.net/DTD/sodipodi-0.dtd"
   xmlns:inkscape="http://www.inkscape.org/namespaces/inkscape"
   width="218"
   height="160"
   version="1.1"
   viewBox="0 0 57.679166 42.333332"
   id="svg26"
   sodipodi:docname="classic-md3.svg"
   inkscape:version="1.0.1 (1.0.1+r73)">
  <metadata
     id="metadata32">
    <rdf:RDF>
      <cc:Work
         rdf:about="">
        <dc:format>image/svg+xml</dc:format>
        <dc:type
           rdf:resource="http://purl.org/dc/dcmitype/StillImage" />
        <dc:title></dc:title>
      </cc:Work>
    </rdf:RDF>
  </metadata>
  <defs
     id="defs30" />
  <sodipodi:namedview
     pagecolor="#ffffff"
     bordercolor="#666666"
     borderopacity="1"
     objecttolerance="10"
     gridtolerance="10"
     guidetolerance="10"
     inkscape:pageopacity="0"
     inkscape:pageshadow="2"
     inkscape:window-width="1874"
     inkscape:window-height="1057"
     id="namedview28"
     showgrid="false"
     inkscape:zoom="5.58125"
     inkscape:cx="70.403681"
     inkscape:cy="70.888106"
     inkscape:window-x="46"
     inkscape:window-y="0"
     inkscape:window-maximized="1"
     inkscape:current-layer="g24" />
  <g
     id="g24">
    <rect
       width="57.679165"
       height="42.333332"
       fill="#d3e3fd"
       style="paint-order:stroke fill markers"
       id="rect2"
       x="0"
       y="0" />
    <path
       d="M 3.4395833,2.6458333 C 2.4315762,3.4129458 2.3497764,6.0229532 1.3229166,7.9374999 H 0.52916666 V 41.804166 H 57.149999 V 7.9374999 H 28.355893 C 27.329026,6.0229532 27.247233,3.4129458 26.239225,2.6458333 H 6.9540967 Z"
       color="#000000"
       color-rendering="auto"
       dominant-baseline="auto"
       fill="#ffffff"
       image-rendering="auto"
       shape-rendering="auto"
       solid-color="#000000"
       stop-color="#000000"
       style="font-variant-ligatures:normal;font-variant-position:normal;font-variant-caps:normal;font-variant-numeric:normal;font-variant-alternates:normal;font-variant-east-asian:normal;font-feature-settings:normal;font-variation-settings:normal;text-indent:0;text-decoration:none;text-decoration-line:none;text-decoration-style:solid;text-decoration-color:#000000;text-transform:none;text-orientation:mixed;white-space:normal;shape-padding:0;shape-margin:0;inline-size:0;isolation:auto;mix-blend-mode:normal;paint-order:stroke fill markers"
       id="path4" />
    <path
       d="M 0.52916664,7.9374995 H 57.149993 V 13.758333 H 0.52916664 Z"
       fill="#202020"
       style="paint-order:stroke fill markers"
       id="path6" />
    <path
       d="M 3.4395833,2.6458333 C 2.4315762,3.4129458 2.3497763,6.0494115 1.3229166,7.9639582 H 28.355894 C 27.329033,6.0494115 27.247234,3.4129458 26.239226,2.6458333 H 6.9540966 Z"
       fill="#ffffff"
       id="path8"
       sodipodi:nodetypes="cccccc" />
    <rect
       x="0.52916664"
       y="7.9374995"
       width="56.620831"
       height="5.8208332"
       fill="#ffffff"
       style="paint-order:stroke fill markers"
       id="rect10" />
    <rect
       x="0.52916664"
       y="13.49375"
       width="56.620831"
       height="0.26458332"
       fill="#e1e1e1"
       style="paint-order:stroke fill markers"
       id="rect12" />
    <path
       transform="scale(0.26458333)"
       d="m 85,0 47.5,160 H 218 V 0 Z"
       fill="#1f2020"
       style="paint-order:stroke fill markers"
       id="path14" />
    <path
       transform="scale(0.26458333)"
       d="m 87.96875,10 43.9375,148 H 216 V 30 H 107.17188 C 103.2908,22.763918 102.98167,12.899323 99.171875,10 Z"
       color="#000000"
       color-rendering="auto"
       dominant-baseline="auto"
       fill="#202020"
       image-rendering="auto"
       shape-rendering="auto"
       solid-color="#000000"
       stop-color="#000000"
       style="font-variant-ligatures:normal;font-variant-position:normal;font-variant-caps:normal;font-variant-numeric:normal;font-variant-alternates:normal;font-variant-east-asian:normal;font-feature-settings:normal;font-variation-settings:normal;text-indent:0;text-decoration:none;text-decoration-line:none;text-decoration-style:solid;text-decoration-color:#000000;text-transform:none;text-orientation:mixed;white-space:normal;shape-padding:0;shape-margin:0;inline-size:0;isolation:auto;mix-blend-mode:normal;paint-order:stroke fill markers"
       id="path16" />
    <path
       transform="scale(0.26458333)"
       d="m 87.96875,10 5.9375,20 h 13.26563 c -3.88105,-7.236082 -4.19021,-17.100677 -8.000005,-20 z"
       fill="#3c3c3c"
       id="path18" />
    <path
       transform="scale(0.26458333)"
       d="m 93.90625,30 6.53125,22 H 216 V 30 Z"
       fill="#3c3c3c"
       style="paint-order:stroke fill markers"
       id="path20" />
    <path
       transform="scale(0.26458333)"
       d="m 100.14062,51 0.29688,1 H 216 v -1 z"
       fill="#444746"
       style="paint-order:stroke fill markers"
       id="path22" />
  </g>
</svg>
